img/trouble/trouble-check-box.svg

<svg fill="none" height="25" viewBox="0 0 24 25" width="24" xmlns="http://www.w3.org/2000/svg" xmlns:xlink="http://www.w3.org/1999/xlink"><clipPath id="a"><path d="m0 .5h24v24h-24z"/></clipPath><g clip-path="url(#a)"><path d="m21.3333.5h-18.66663c-1.46667 0-2.66667 1.2-2.66667 2.66667v18.66663c0 1.4667 1.2 2.6667 2.66667 2.6667h18.66663c1.4667 0 2.6667-1.2 2.6667-2.6667v-18.66663c0-1.46667-1.2-2.66667-2.6667-2.66667zm-11.0533 17.72c-.1234.1236-.2699.2217-.43117.2886-.16129.0669-.33421.1013-.50883.1013s-.34753-.0344-.50883-.1013-.30782-.165-.43117-.2886l-4.78667-4.7867c-.12344-.1234-.22136-.27-.28817-.4312-.0668-.1613-.10119-.3342-.10119-.5088 0-.1745.03439-.3474.10119-.5087.06681-.1613.16473-.3078.28817-.4313.12345-.1234.26999-.2213.43128-.2881.16128-.0668.33415-.1012.50872-.1012.17458 0 .34744.0344.50873.1012.16128.0668.30783.1647.43127.2881l3.84 3.84 9.17337-9.1733c.2493-.2493.5874-.38936.94-.38936.3525 0 .6907.14006.94.38936s.3893.58743.3893.94-.14.6907-.3893.94z" fill="#333"/></g></svg>

<svg width="24" height="25" viewBox="0 0 24 25" fill="none" xmlns="http://www.w3.org/2000/svg">
<g clip-path="url(#clip0_113_2273)">
<path d="M21.3333 0.5H2.66667C1.2 0.5 0 1.7 0 3.16667V21.8333C0 23.3 1.2 24.5 2.66667 24.5H21.3333C22.8 24.5 24 23.3 24 21.8333V3.16667C24 1.7 22.8 0.5 21.3333 0.5ZM10.28 18.22C10.1566 18.3436 10.0101 18.4417 9.84883 18.5086C9.68754 18.5755 9.51462 18.6099 9.34 18.6099C9.16538 18.6099 8.99247 18.5755 8.83117 18.5086C8.66987 18.4417 8.52335 18.3436 8.4 18.22L3.61333 13.4333C3.48989 13.3099 3.39197 13.1633 3.32516 13.0021C3.25836 12.8408 3.22397 12.6679 3.22397 12.4933C3.22397 12.3188 3.25836 12.1459 3.32516 11.9846C3.39197 11.8233 3.48989 11.6768 3.61333 11.5533C3.73678 11.4299 3.88332 11.332 4.04461 11.2652C4.20589 11.1984 4.37876 11.164 4.55333 11.164C4.72791 11.164 4.90077 11.1984 5.06206 11.2652C5.22334 11.332 5.36989 11.4299 5.49333 11.5533L9.33333 15.3933L18.5067 6.22C18.756 5.9707 19.0941 5.83064 19.4467 5.83064C19.7992 5.83064 20.1374 5.9707 20.3867 6.22C20.636 6.4693 20.776 6.80743 20.776 7.16C20.776 7.51257 20.636 7.8507 20.3867 8.1L10.28 18.22Z" fill="#333333"/>
</g>
<defs>
<clipPath id="clip0_113_2273">
<rect width="24" height="24" fill="white" transform="translate(0 0.5)"/>
</clipPath>
</defs>
</svg>
